svg/users.svg

<svg xmlns="http://www.w3.org/2000/svg" viewBox="0 0 64 64" enable-background="new 0 0 64 64"><style type="text/css">.st0{fill:#343434;}</style><title>users</title><desc>Created with Sketch.</desc><path class="st0" d="M60.5 27.1s-3.1-2.1-8.3-3.3c3.5-2.3 5.8-6.3 5.8-10.8 0-7.2-5.8-13-13-13s-13 5.8-13 13c0 4.5 2.3 8.5 5.8 10.8-2.5.6-4.5 1.3-5.9 2-.6-6.6-6.1-11.8-12.9-11.8-7.2 0-13 5.8-13 13 0 4.5 2.3 8.5 5.8 10.8-5.2 1.2-8.3 3.3-8.3 3.3-1.9 1.1-3.5 3.7-3.5 5.9v13c0 2.2 1.8 4 4 4h30c2.2 0 4-1.8 4-4v-10h22c2.2 0 4-1.8 4-4v-13c0-2.2-1.5-4.9-3.5-5.9zm-24.5-14.1c0-5 4-9 9-9s9 4 9 9-4 9-9 9-9-4-9-9zm-26 14c0-5 4-9 9-9s9 4 9 9l-.1 1.6-.2.9v.2c-.1.3-.2.7-.4 1l-.1.3c-.1.2-.2.5-.4.7l-.2.3c-.1.2-.3.5-.5.7-1.6 1.9-4.2 3.3-7.1 3.3-5 0-9-4-9-9zm24 23v10h-30v-13c0-.7.8-2 1.4-2.4l.2-.1.2-.1.1-.1c.1-.1.4-.2.6-.3.7-.4 1.6-.8 2.6-1.2 2.9-1.1 6.2-1.8 9.8-1.8 3.6 0 6.9.7 9.8 1.8 1 .4 1.9.8 2.6 1.2.2.1.5.3.6.4l.1.1.2.1.2.1c.8.3 1.6 1.5 1.6 2.3v3zm22.8-4h-19c-.4-2-1.7-4-3.4-4.9 0 0-1.6-1.1-4.5-2.1v-5.1l.3-.5c.6-.8 1-1.6 1.2-2.6.4-.4.8-.7 1.3-.9 0 0 4.8-2.9 12.2-2.9 7.4 0 12.2 2.9 12.2 2.9 1.6.7 2.8 2.6 2.8 4.2v9.1h.1c0 1.6-1.4 2.8-3.2 2.8z"/></svg>

<?xml version="1.0" encoding="utf-8"?>
<!-- Generator: Adobe Illustrator 21.0.0, SVG Export Plug-In . SVG Version: 6.00 Build 0)  -->
<svg version="1.1" id="Layer_1" xmlns="http://www.w3.org/2000/svg" xmlns:xlink="http://www.w3.org/1999/xlink" x="0px" y="0px"
	 viewBox="0 0 64 64" style="enable-background:new 0 0 64 64;" xml:space="preserve">
<style type="text/css">
	.st0{fill:#343434;}
</style>
<title>users</title>
<desc>Created with Sketch.</desc>
<path class="st0" d="M60.5,27.1c0,0-3.1-2.1-8.3-3.3C55.7,21.5,58,17.5,58,13c0-7.2-5.8-13-13-13S32,5.8,32,13
	c0,4.5,2.3,8.5,5.8,10.8c-2.5,0.6-4.5,1.3-5.9,2C31.3,19.2,25.8,14,19,14c-7.2,0-13,5.8-13,13c0,4.5,2.3,8.5,5.8,10.8
	c-5.2,1.2-8.3,3.3-8.3,3.3C1.6,42.2,0,44.8,0,47v13c0,2.2,1.8,4,4,4h30c2.2,0,4-1.8,4-4V50h22c2.2,0,4-1.8,4-4V33
	C64,30.8,62.5,28.1,60.5,27.1z M36,13c0-5,4-9,9-9s9,4,9,9s-4,9-9,9S36,18,36,13z M10,27c0-5,4-9,9-9s9,4,9,9c0,0.5-0.1,1.1-0.1,1.6
	c-0.1,0.3-0.1,0.6-0.2,0.9c0,0.1,0,0.1,0,0.2c-0.1,0.3-0.2,0.7-0.4,1c0,0.1-0.1,0.2-0.1,0.3c-0.1,0.2-0.2,0.5-0.4,0.7
	c-0.1,0.1-0.1,0.2-0.2,0.3c-0.1,0.2-0.3,0.5-0.5,0.7C24.5,34.6,21.9,36,19,36C14,36,10,32,10,27z M34,50v10H4V47
	c0-0.7,0.8-2,1.4-2.4l0.2-0.1l0.2-0.1c0,0,0,0,0.1-0.1C6,44.2,6.3,44.1,6.5,44c0.7-0.4,1.6-0.8,2.6-1.2c2.9-1.1,6.2-1.8,9.8-1.8
	c3.6,0,6.9,0.7,9.8,1.8c1,0.4,1.9,0.8,2.6,1.2c0.2,0.1,0.5,0.3,0.6,0.4c0.1,0.1,0.1,0.1,0.1,0.1l0.2,0.1l0.2,0.1
	C33.2,45,34,46.2,34,47V50z M56.8,46h-19c-0.4-2-1.7-4-3.4-4.9c0,0-1.6-1.1-4.5-2.1v-5v-0.1c0.1-0.2,0.2-0.3,0.3-0.5
	c0.6-0.8,1-1.6,1.2-2.6c0.4-0.4,0.8-0.7,1.3-0.9c0,0,4.8-2.9,12.2-2.9c7.4,0,12.2,2.9,12.2,2.9c1.6,0.7,2.8,2.6,2.8,4.2v9.1H60
	C60,44.8,58.6,46,56.8,46z"/>
</svg>
